src/assets/icon/empty-bookmark.svg

<svg width="151" height="162" viewBox="0 0 151 162" fill="none" xmlns="http://www.w3.org/2000/svg">
<g filter="url(#filter0_f_1122_12482)">
<ellipse cx="73.4331" cy="136.122" rx="54.626" ry="12.6968" fill="#E7E7FF"/>
</g>
<path d="M74.1423 146.103C111.552 146.103 141.879 115.777 141.879 78.3667C141.879 40.9567 111.552 10.6299 74.1423 10.6299C36.7323 10.6299 6.40552 40.9567 6.40552 78.3667C6.40552 115.777 36.7323 146.103 74.1423 146.103Z" fill="url(#paint0_linear_1122_12482)"/>
<path d="M107.73 19.4882H39.5233C36.9854 19.4882 34.5514 20.4963 32.7569 22.2909C30.9623 24.0855 29.9541 26.5194 29.9541 29.0573V106.78H30.0711V134.074C30.071 135.128 30.341 136.164 30.8552 137.084C31.3695 138.004 32.111 138.776 33.0088 139.328C33.9067 139.88 34.9309 140.193 35.9839 140.236C37.0368 140.279 38.0834 140.052 39.0236 139.576L70.4849 123.627C71.3421 123.198 72.2878 122.974 73.2467 122.974C74.2056 122.974 75.1513 123.198 76.0085 123.627L108.437 139.693C109.378 140.159 110.422 140.377 111.471 140.327C112.52 140.277 113.539 139.959 114.43 139.405C115.322 138.851 116.058 138.078 116.567 137.16C117.077 136.242 117.343 135.209 117.342 134.159L117.257 106.78V29.0308C117.25 26.5048 116.245 24.0841 114.46 22.2965C112.675 20.5089 110.256 19.4994 107.73 19.4882V19.4882Z" fill="url(#paint1_linear_1122_12482)"/>
<path d="M150.5 44.6604C150.502 46.7289 149.752 48.7277 148.389 50.284C147.027 51.8403 145.144 52.8479 143.094 53.1189C142.719 53.1667 142.341 53.1912 141.963 53.1924H113.583C112.967 53.191 112.353 53.1403 111.745 53.0408C109.136 52.5906 106.786 51.1915 105.147 49.1126C103.508 47.0337 102.696 44.422 102.867 41.7802C103.039 39.1385 104.181 36.6534 106.074 34.8033C107.968 32.9532 110.479 31.8688 113.124 31.7589C114.494 28.7823 116.796 26.3321 119.681 24.7781C122.567 23.224 125.879 22.6503 129.119 23.1435C132.359 23.6367 135.35 25.1701 137.642 27.5123C139.934 29.8545 141.403 32.8786 141.826 36.1283H141.954C143.076 36.1265 144.187 36.3459 145.223 36.7738C146.26 37.2018 147.202 37.83 147.996 38.6224C148.79 39.4149 149.42 40.3561 149.849 41.3921C150.279 42.4282 150.5 43.5388 150.5 44.6604Z" fill="url(#paint2_linear_1122_12482)"/>
<path d="M6.18408 27.9497C6.18408 29.6557 6.86177 31.2918 8.06807 32.498C9.27437 33.7043 10.9105 34.382 12.6164 34.382H33.9718C36.0759 34.3709 38.0925 33.5387 39.592 32.0626C41.0916 30.5865 41.9555 28.5833 41.9999 26.4796C42.0442 24.3759 41.2654 22.3381 39.8294 20.8002C38.3933 19.2623 36.4135 18.3458 34.3118 18.2461C33.2752 16.0133 31.5423 14.177 29.3733 13.0129C27.2043 11.8488 24.7162 11.4196 22.2826 11.7898C19.8489 12.16 17.601 13.3097 15.8763 15.0661C14.1516 16.8226 13.0432 19.0911 12.7175 21.5311H12.621C10.9166 21.5299 9.28146 22.2052 8.07456 23.4086C6.86767 24.6121 6.18773 26.2453 6.18408 27.9497V27.9497Z" fill="url(#paint3_linear_1122_12482)"/>
<g filter="url(#filter1_f_1122_12482)">
<ellipse cx="76.4521" cy="91.6413" rx="30.7915" ry="6.59817" fill="#7C7CFF" fill-opacity="0.39"/>
</g>
<path d="M76.1574 34.7244L83.7276 50.0617C83.9522 50.5164 84.2839 50.9098 84.6941 51.2079C85.1044 51.5061 85.5809 51.7002 86.0827 51.7735L103.004 54.2136C103.577 54.3014 104.115 54.5465 104.557 54.9216C104.998 55.2967 105.328 55.7872 105.507 56.3383C105.687 56.8894 105.71 57.4795 105.574 58.043C105.438 58.6065 105.148 59.1212 104.737 59.5298L92.51 71.4647C92.1464 71.8186 91.8745 72.2558 91.718 72.7384C91.5614 73.221 91.5249 73.7346 91.6116 74.2345L94.5036 91.0869C94.6028 91.6631 94.5386 92.2555 94.3185 92.7971C94.0983 93.3387 93.7309 93.8079 93.2579 94.1514C92.7848 94.495 92.225 94.6993 91.6419 94.7411C91.0587 94.783 90.4755 94.6608 89.9582 94.3883L74.823 86.4139C74.3736 86.1783 73.8738 86.0552 73.3663 86.0552C72.8589 86.0552 72.3591 86.1783 71.9097 86.4139L56.7744 94.3883C56.2573 94.6593 55.6748 94.7804 55.0925 94.7378C54.5102 94.6952 53.9515 94.4907 53.4793 94.1474C53.0071 93.804 52.6403 93.3355 52.4203 92.7947C52.2004 92.2539 52.136 91.6623 52.2344 91.0869L55.1211 74.2345C55.2078 73.7346 55.1713 73.221 55.0147 72.7384C54.8582 72.2558 54.5863 71.8186 54.2227 71.4647L41.9954 59.5298C41.5842 59.1212 41.2945 58.6065 41.1586 58.043C41.0227 57.4795 41.0458 56.8894 41.2255 56.3383C41.4052 55.7872 41.7343 55.2967 42.1762 54.9216C42.6181 54.5465 43.1555 54.3014 43.7285 54.2136L60.65 51.7575C61.1518 51.6843 61.6283 51.4902 62.0386 51.192C62.4488 50.8938 62.7805 50.5004 63.005 50.0457L70.5753 34.7084C70.8388 34.1941 71.2394 33.7627 71.7329 33.462C72.2263 33.1613 72.7934 33.003 73.3712 33.0047C73.9491 33.0063 74.5152 33.1678 75.007 33.4714C75.4987 33.7749 75.8969 34.2086 76.1574 34.7244Z" fill="url(#paint4_linear_1122_12482)"/>
<path d="M0.500011 110.19C0.498993 112.25 1.24693 114.24 2.60447 115.79C3.96201 117.339 5.83655 118.342 7.87882 118.612C8.25028 118.664 8.62485 118.69 8.99988 118.69H37.2562C37.8719 118.689 38.4865 118.638 39.094 118.538C41.7064 118.104 44.0641 116.714 45.7097 114.639C47.3553 112.564 48.1714 109.951 47.9997 107.309C47.828 104.666 46.6807 102.181 44.7804 100.336C42.8801 98.4917 40.3624 97.4187 37.7157 97.3255C36.3489 94.3633 34.0564 91.9256 31.1837 90.3796C28.3109 88.8336 25.0136 88.2631 21.7884 88.754C18.5633 89.245 15.585 90.7708 13.3024 93.1016C11.0199 95.4324 9.55659 98.4418 9.13313 101.677H8.99988C7.8825 101.677 6.77609 101.897 5.74394 102.325C4.71179 102.753 3.77415 103.38 2.98469 104.171C2.19522 104.962 1.56941 105.9 1.14307 106.933C0.716718 107.966 0.498199 109.073 0.500011 110.19V110.19Z" fill="url(#paint5_linear_1122_12482)"/>
<path d="M127.777 63.216C127.591 62.4868 128.265 61.8298 128.989 62.0334L133.879 63.4075C134.603 63.6111 134.836 64.5226 134.297 65.0481L130.662 68.5958C130.124 69.1214 129.218 68.8669 129.032 68.1378L127.777 63.216Z" fill="#BDBDFF"/>
<path d="M14.8753 63.216C14.6894 62.4868 15.3625 61.8298 16.0869 62.0334L20.9768 63.4075C21.7012 63.6111 21.9336 64.5226 21.3951 65.0481L17.7601 68.5958C17.2216 69.1214 16.3161 68.8669 16.1302 68.1378L14.8753 63.216Z" fill="#BDBDFF"/>
<path d="M52.8292 4.72362C53.1182 3.52661 54.8208 3.52661 55.1097 4.72362L56.0822 8.75231C56.1855 9.18007 56.5195 9.51406 56.9472 9.61732L60.9759 10.5898C62.1729 10.8788 62.1729 12.5814 60.9759 12.8703L56.9472 13.8428C56.5195 13.9461 56.1855 14.2801 56.0822 14.7078L55.1097 18.7365C54.8208 19.9335 53.1182 19.9335 52.8292 18.7365L51.8567 14.7078C51.7534 14.2801 51.4195 13.9461 50.9917 13.8428L46.963 12.8703C45.766 12.5814 45.766 10.8788 46.963 10.5898L50.9917 9.61732C51.4195 9.51406 51.7534 9.18007 51.8567 8.75231L52.8292 4.72362Z" fill="#BDBDFF"/>
<path d="M79.1403 133.918C79.1403 135.403 77.9368 136.606 76.4522 136.606C74.9675 136.606 73.764 135.403 73.764 133.918C73.764 132.434 74.9675 131.23 76.4522 131.23C77.9368 131.23 79.1403 132.434 79.1403 133.918Z" stroke="#BDBDFF" stroke-width="1.46626"/>
<path d="M127.12 111.761C127.409 110.564 129.111 110.564 129.4 111.761L130.373 115.789C130.476 116.217 130.81 116.551 131.238 116.654L135.267 117.627C136.464 117.916 136.464 119.618 135.267 119.907L131.238 120.88C130.81 120.983 130.476 121.317 130.373 121.745L129.4 125.774C129.111 126.971 127.409 126.971 127.12 125.774L126.147 121.745C126.044 121.317 125.71 120.983 125.282 120.88L121.254 119.907C120.057 119.618 120.057 117.916 121.254 117.627L125.282 116.654C125.71 116.551 126.044 116.217 126.147 115.789L127.12 111.761Z" fill="#BDBDFF"/>
<circle cx="131.681" cy="94.8181" r="2.68814" stroke="#9999FC" stroke-width="1.46626"/>
<defs>
<filter id="filter0_f_1122_12482" x="5.94907" y="110.567" width="134.968" height="51.1098" filterUnits="userSpaceOnUse" color-interpolation-filters="sRGB">
<feFlood flood-opacity="0" result="BackgroundImageFix"/>
<feBlend mode="normal" in="SourceGraphic" in2="BackgroundImageFix" result="shape"/>
<feGaussianBlur stdDeviation="6.42903" result="effect1_foregroundBlur_1122_12482"/>
</filter>
<filter id="filter1_f_1122_12482" x="33.4418" y="72.8243" width="86.0206" height="37.634" filterUnits="userSpaceOnUse" color-interpolation-filters="sRGB">
<feFlood flood-opacity="0" result="BackgroundImageFix"/>
<feBlend mode="normal" in="SourceGraphic" in2="BackgroundImageFix" result="shape"/>
<feGaussianBlur stdDeviation="6.10942" result="effect1_foregroundBlur_1122_12482"/>
</filter>
<linearGradient id="paint0_linear_1122_12482" x1="73.6201" y1="-11.4269" x2="75.0078" y2="226.454" gradientUnits="userSpaceOnUse">
<stop stop-color="#E1E1FF" stop-opacity="0"/>
<stop offset="1" stop-color="#E0E0FF"/>
</linearGradient>
<linearGradient id="paint1_linear_1122_12482" x1="138.603" y1="146.558" x2="33.8349" y2="52.4226" gradientUnits="userSpaceOnUse">
<stop stop-color="#9999FF"/>
<stop offset="1" stop-color="#DADAFF"/>
</linearGradient>
<linearGradient id="paint2_linear_1122_12482" x1="141.456" y1="66.2261" x2="117.752" y2="22.9714" gradientUnits="userSpaceOnUse">
<stop stop-color="#BDBDFF"/>
<stop offset="1" stop-color="#F5F5FF"/>
</linearGradient>
<linearGradient id="paint3_linear_1122_12482" x1="35.2045" y1="44.1814" x2="17.3791" y2="11.6654" gradientUnits="userSpaceOnUse">
<stop stop-color="#BDBDFF"/>
<stop offset="1" stop-color="#F5F5FF"/>
</linearGradient>
<linearGradient id="paint4_linear_1122_12482" x1="46.2826" y1="49.57" x2="161.942" y2="94.6927" gradientUnits="userSpaceOnUse">
<stop stop-color="#BDACFF"/>
<stop offset="0.70369" stop-color="#4242FF"/>
</linearGradient>
<linearGradient id="paint5_linear_1122_12482" x1="39.0039" y1="131.675" x2="15.4007" y2="88.5633" gradientUnits="userSpaceOnUse">
<stop stop-color="#BDBDFF"/>
<stop offset="1" stop-color="#F5F5FF"/>
</linearGradient>
</defs>
</svg>

<svg xmlns="http://www.w3.org/2000/svg" width="151" height="162" fill="none"><g filter="url(#a)"><ellipse cx="73.433" cy="136.122" fill="#E7E7FF" rx="54.626" ry="12.697"/></g><path fill="url(#b)" d="M74.142 146.103c37.41 0 67.737-30.326 67.737-67.736 0-37.41-30.327-67.737-67.737-67.737S6.406 40.957 6.406 78.367s30.326 67.736 67.736 67.736Z"/><path fill="url(#c)" d="M107.73 19.488H39.523a9.569 9.569 0 0 0-9.569 9.57v77.722h.117v27.294a6.168 6.168 0 0 0 8.953 5.502l31.46-15.949a6.172 6.172 0 0 1 5.525 0l32.428 16.066a6.173 6.173 0 0 0 5.993-.288 6.16 6.16 0 0 0 2.912-5.246l-.085-27.379V29.03a9.567 9.567 0 0 0-9.527-9.542Z"/><path fill="url(#d)" d="M150.5 44.66a8.523 8.523 0 0 1-8.537 8.532h-28.38a11.537 11.537 0 0 1-1.838-.151 10.724 10.724 0 0 1 1.379-21.282 15.102 15.102 0 0 1 15.995-8.616 15.105 15.105 0 0 1 12.707 12.985h.128a8.528 8.528 0 0 1 7.895 5.264 8.526 8.526 0 0 1 .651 3.268Z"/><path fill="url(#e)" d="M6.184 27.95a6.432 6.432 0 0 0 6.432 6.432h21.356a8.072 8.072 0 0 0 .34-16.136 11.376 11.376 0 0 0-21.594 3.285h-.097a6.433 6.433 0 0 0-6.437 6.419Z"/><g filter="url(#f)"><ellipse cx="76.452" cy="91.641" fill="#7C7CFF" fill-opacity=".39" rx="30.791" ry="6.598"/></g><path fill="url(#g)" d="m76.157 34.724 7.57 15.338a3.131 3.131 0 0 0 2.356 1.712l16.921 2.44a3.134 3.134 0 0 1 2.503 2.124 3.127 3.127 0 0 1-.77 3.192L92.51 71.465a3.121 3.121 0 0 0-.898 2.77l2.892 16.852a3.131 3.131 0 0 1-4.546 3.301l-15.135-7.974a3.137 3.137 0 0 0-2.913 0l-15.136 7.974a3.131 3.131 0 0 1-4.54-3.301l2.887-16.853a3.12 3.12 0 0 0-.898-2.77L41.995 59.53a3.13 3.13 0 0 1 1.733-5.316l16.922-2.456a3.13 3.13 0 0 0 2.355-1.712l7.57-15.338a3.132 3.132 0 0 1 5.582.016Z"/><path fill="url(#h)" d="M.5 110.19a8.493 8.493 0 0 0 7.379 8.422c.371.052.746.078 1.12.078h28.257a11.43 11.43 0 0 0 1.838-.152A10.678 10.678 0 0 0 48 107.309a10.684 10.684 0 0 0-10.284-9.983 15.047 15.047 0 0 0-28.583 4.351H9a8.5 8.5 0 0 0-8.5 8.513Z"/><path fill="#BDBDFF" d="M127.777 63.216a.978.978 0 0 1 1.212-1.183l4.89 1.374a.977.977 0 0 1 .418 1.641l-3.635 3.548a.978.978 0 0 1-1.63-.458l-1.255-4.922ZM14.875 63.216a.977.977 0 0 1 1.212-1.183l4.89 1.374a.978.978 0 0 1 .418 1.641l-3.635 3.548a.977.977 0 0 1-1.63-.458l-1.255-4.922ZM52.83 4.724c.288-1.197 1.99-1.197 2.28 0l.972 4.028c.103.428.438.762.865.865l4.029.973c1.197.289 1.197 1.991 0 2.28l-4.029.973a1.173 1.173 0 0 0-.865.865l-.972 4.028c-.29 1.197-1.992 1.197-2.28 0l-.973-4.028a1.173 1.173 0 0 0-.865-.865l-4.029-.973c-1.197-.289-1.197-1.991 0-2.28l4.029-.973c.428-.103.761-.437.865-.865l.972-4.028Z"/><path stroke="#BDBDFF" stroke-width="1.466" d="M79.14 133.918a2.688 2.688 0 1 1-5.375 0 2.688 2.688 0 0 1 5.375 0Z"/><path fill="#BDBDFF" d="M127.12 111.761c.289-1.197 1.991-1.197 2.28 0l.973 4.028c.103.428.437.762.865.865l4.029.973c1.197.289 1.197 1.991 0 2.28l-4.029.973a1.171 1.171 0 0 0-.865.865l-.973 4.029c-.289 1.197-1.991 1.197-2.28 0l-.973-4.029a1.171 1.171 0 0 0-.865-.865l-4.028-.973c-1.197-.289-1.197-1.991 0-2.28l4.028-.973c.428-.103.762-.437.865-.865l.973-4.028Z"/><circle cx="131.681" cy="94.818" r="2.688" stroke="#9999FC" stroke-width="1.466"/><defs><linearGradient id="b" x1="73.62" x2="75.008" y1="-11.427" y2="226.454" gradientUnits="userSpaceOnUse"><stop stop-color="#E1E1FF" stop-opacity="0"/><stop offset="1" stop-color="#E0E0FF"/></linearGradient><linearGradient id="c" x1="138.603" x2="33.835" y1="146.558" y2="52.423" gradientUnits="userSpaceOnUse"><stop stop-color="#99F"/><stop offset="1" stop-color="#DADAFF"/></linearGradient><linearGradient id="d" x1="141.456" x2="117.752" y1="66.226" y2="22.971" gradientUnits="userSpaceOnUse"><stop stop-color="#BDBDFF"/><stop offset="1" stop-color="#F5F5FF"/></linearGradient><linearGradient id="e" x1="35.205" x2="17.379" y1="44.181" y2="11.665" gradientUnits="userSpaceOnUse"><stop stop-color="#BDBDFF"/><stop offset="1" stop-color="#F5F5FF"/></linearGradient><linearGradient id="g" x1="46.283" x2="161.942" y1="49.57" y2="94.693" gradientUnits="userSpaceOnUse"><stop stop-color="#BDACFF"/><stop offset=".704" stop-color="#4242FF"/></linearGradient><linearGradient id="h" x1="39.004" x2="15.401" y1="131.675" y2="88.563" gradientUnits="userSpaceOnUse"><stop stop-color="#BDBDFF"/><stop offset="1" stop-color="#F5F5FF"/></linearGradient><filter id="a" width="134.968" height="51.11" x="5.949" y="110.567" color-interpolation-filters="sRGB" filterUnits="userSpaceOnUse"><feFlood flood-opacity="0" result="BackgroundImageFix"/><feBlend in="SourceGraphic" in2="BackgroundImageFix" result="shape"/><feGaussianBlur result="effect1_foregroundBlur_1122_12482" stdDeviation="6.429"/></filter><filter id="f" width="86.021" height="37.634" x="33.442" y="72.824" color-interpolation-filters="sRGB" filterUnits="userSpaceOnUse"><feFlood flood-opacity="0" result="BackgroundImageFix"/><feBlend in="SourceGraphic" in2="BackgroundImageFix" result="shape"/><feGaussianBlur result="effect1_foregroundBlur_1122_12482" stdDeviation="6.109"/></filter></defs></svg>
